X:1
T:Méditation (Thaïs)
C:Jules Massenet
M:4/4
L:1/4
Q:1/4=56
K:D
% Famous violin intermezzo — A section, pickup + 10 bars
F | A3 d | c B A2 | =G A F2 | A4 |
A2 dc | B A F2 | A2 d2 | c2 B2 | A F A2 | d4 |]
